X: 227
T: A Hole In The Head
R: jig
M: 6/8
K: Eminor
M:5/8
EE eee|dc BBB|AG AAA|FA GFE|
EE e^de|dc BB^A|BG AAA|GF E3|
EE e2 e|dc B^AB|cG A^GA|cF EGE|
EE ee^d|ec B2 B|AG FAF|E^D E3||
EG FAA|FA GFE|EB cAA|Ac BGE|
EG F2 A|FA GEG|EG FDF|AF E3|
EG FDF|AF GEE|EB cAc|ec BGE|
EG F2 D|Ac BGE|[M:6/8] E^DE FAA|[M:5/8] cF E3||

